src/fonts/icomoon/icons/purchase-status-add-order.svg

<svg height="512pt" viewBox="0 0 512 512" width="512pt" xmlns="http://www.w3.org/2000/svg"><path d="m106.980469 190.628906-12.683594-15.164062-23.015625 19.246094 32.601562 38.976562 54.214844-48.585938-20.019531-22.34375zm0 0"/><path d="m180.667969 187h115.976562v30h-115.976562zm0 0"/><path d="m106.980469 276.886719-12.683594-15.164063-23.015625 19.246094 32.601562 38.976562 54.214844-48.585937-20.019531-22.339844zm0 0"/><path d="m180.667969 273.257812h115.976562v30h-115.976562zm0 0"/><path d="m106.980469 363.144531-12.683594-15.164062-23.015625 19.246093 32.601562 38.976563 54.214844-48.585937-20.019531-22.339844zm0 0"/><path d="m180.667969 359.519531h115.976562v30h-115.976562zm0 0"/><path d="m302.546875 0h-30v30.546875h-38.695313v-30.546875h-30v30.546875h-38.703124v-30.546875h-30v30.546875h-38.695313v-30.546875h-30v30.546875h-66.453125v481.453125h369v-481.453125h-66.453125zm36.453125 60.546875v421.453125h-309v-421.453125h36.453125v30.542969h30v-30.542969h38.695313v30.542969h30v-30.542969h38.699218v30.542969h30v-30.542969h38.699219v30.542969h30v-30.542969zm0 0"/><path d="m404.4375 26.480469v412.726562l44.925781 72.792969h17.707031l44.929688-72.796875v-412.722656zm77.5625 30v52.109375h-47.5625v-52.109375zm-47.5625 82.109375h47.5625v244.425781h-47.5625zm23.78125 330.636718-23.78125-38.53125v-17.679687h47.5625v17.675781zm0 0"/></svg>

<svg height="512pt" viewBox="0 0 512 512" width="512pt" xmlns="http://www.w3.org/2000/svg"><path d="M106.98 190.629l-12.683-15.164L71.28 194.71l32.602 38.976 54.215-48.585-20.02-22.344zm0 0M180.668 187h115.977v30H180.668zm0 0M106.98 276.887l-12.683-15.164-23.016 19.246 32.602 38.976 54.215-48.586-20.02-22.34zm0 0M180.668 273.258h115.977v30H180.668zm0 0M106.98 363.145L94.297 347.98 71.28 367.227l32.602 38.976 54.215-48.586-20.02-22.34zm0 0M180.668 359.52h115.977v30H180.668zm0 0"/><path d="M302.547 0h-30v30.547h-38.695V0h-30v30.547h-38.704V0h-30v30.547H96.453V0h-30v30.547H0V512h369V30.547h-66.453zM339 60.547V482H30V60.547h36.453V91.09h30V60.547h38.695V91.09h30V60.547h38.7V91.09h30V60.547h38.699V91.09h30V60.547zm0 0M404.438 26.48v412.727L449.363 512h17.707L512 439.203V26.48zm77.562 30v52.11h-47.563V56.48zm-47.563 82.11H482v244.426h-47.563zm23.782 330.637l-23.781-38.532v-17.68H482v17.676zm0 0"/></svg>
